actions/22x22-dark/show-offline.svg

<svg xmlns="http://www.w3.org/2000/svg" viewBox="0 0 22 22">
 <defs id="defs3051">
   <style type="text/css" id="current-color-scheme">
     .ColorScheme-Text {
       color:#f2f2f2;
     }
     </style>
 </defs>
   <path
      style="fill:currentColor;fill-opacity:.4;stroke:none"
      d="m8.1679688 3c-2.0061811 0-3.7226563 1.3601815-3.7226563 3.9550781 0 1.6941365.7858129 3.4140949 1.8261719 4.4765629.4055315 1.06373-.3191026 1.458716-.4707032 1.513671-1.4135385.457109-5.25810375 2.735774-5.19726558 6.054688h9.39843738 5.792969 5.601562c.050852-2.377879-2.230712-3.921759-4.033203-4.541016-.075326-.024635-.551422-.240139-.253906-1.144531h-.003906c.775531-.798745 1.36914-2.084218 1.36914-3.3496092 0-1.9456988-1.295139-2.9648438-2.798828-2.9648438-1.504636 0-2.791015 1.0186713-2.791015 2.9648438 0 1.2706022.588871 2.5625242 1.36914 3.3593752.304149.797798-.239815 1.093549-.353515 1.134765-.117722.038069-.263732.09896-.419922.169922-.95343-.76626-2.058696-1.338731-3.0625-1.683594-.100436-.032846-.7345791-.319534-.337891-1.52539h-.005859c1.034042-1.064994 1.824218-2.7776557 1.824219-4.4648439 0-2.5942649-1.725552-3.9550781-3.7304692-3.9550781z"
      class="ColorScheme-Text" />
</svg>

<svg xmlns="http://www.w3.org/2000/svg" viewBox="0 0 22 22">
  <defs id="defs3051">
    <style type="text/css" id="current-color-scheme">
      .ColorScheme-Text {
        color:#f2f2f2
      }
      </style>
  </defs>
    <path
       style="fill:currentColor;fill-opacity:0.4;stroke:none"
       class="ColorScheme-Text"
       d="M 8.1679688 3 C 6.1617877 3 4.4453125 4.3601815 4.4453125 6.9550781 C 4.4453125 8.6492146 5.2311254 10.369173 6.2714844 11.431641 C 6.6770159 12.495371 5.9523818 12.890357 5.8007812 12.945312 C 4.3872427 13.402421 0.54267745 15.681086 0.60351562 19 L 10.001953 19 L 15.794922 19 L 21.396484 19 C 21.447336 16.622121 19.165772 15.078241 17.363281 14.458984 C 17.287955 14.434349 16.811859 14.218845 17.109375 13.314453 L 17.105469 13.314453 C 17.881 12.515708 18.474609 11.230235 18.474609 9.9648438 C 18.474609 8.019145 17.17947 7 15.675781 7 C 14.171145 7 12.884766 8.0186713 12.884766 9.9648438 C 12.884766 11.235446 13.473637 12.527368 14.253906 13.324219 C 14.558055 14.122017 14.014091 14.417768 13.900391 14.458984 C 13.782669 14.497053 13.636659 14.557944 13.480469 14.628906 C 12.527039 13.862646 11.421773 13.290175 10.417969 12.945312 C 10.317533 12.912466 9.6833899 12.625778 10.080078 11.419922 L 10.074219 11.419922 C 11.108261 10.354928 11.898437 8.6422663 11.898438 6.9550781 C 11.898438 4.3608132 10.172886 3 8.1679688 3 z "
        />
</svg>
